X:1
T:brahms remix
T:brahms remix
%%score 1 { 2 | ( 3 4 ) }
L:1/8
Q:1/4=190
M:3/4
K:F
V:1 treble nm="Violin" snm="Vln."
V:2 treble nm="Piano" snm="Pno."
V:3 bass 
V:4 bass 
V:1
"^pizz""^\n" [A,FA]2 z2 z2 | [A,Fc]2 z2 z2 | [DF]2 z2 z2 | [A,^EA]2 z2 z2 | [A,^EA]2 z2 z2 | %5
 [A,^Ec]2 z2 z2 | [A,^E]2 z2 z2 | [CEA]2 z2 z2 | z2 A2 d2 | z2 c2 A2 | z2 ^E2 ^A2 | z2 A2 z ^A | %12
 A2 ^e2 d2 | z2 c2 A2 | ^E2 =E2 =B2 |1 z6 :|2 z2 z4 || z6 | z6 | z6 | z6 | z6 | z6 | z6 | z6 | z6 | %26
 z6 | z6 | z6 | z6 | z6 | z6 |] %32
V:2
 z2 z .[FA] z .[DAd] | z2 z .[CAc] z .[FA] | z2 z .[DF] z .[B,FB] | z2 z!>(! ([FA] z [EGB])!>)! | %4
 z2 z .[FAf] z .[FAd] | z2 z .[CEc] z .[CEA] | z2 z .[^G,E] z .[D^G=B] | z2 z!>(! .[^CA]2 .G!>)! | %8
 [FA]E .[DF]2 z2 | [Ac]G [FA]2 z2 | [DF]C .[B,D]2 z2 |!>(! [CA]G [^CF]2 z E!>)! | [DF]G .[FA]2 z2 | %13
 [FA]B .[Ec]2 z2 | [A,DF]C .[^G,=B,]2 z2 |1!<(! [Fcf]6!<)! :|2 z6 || z6 | z6 | z6 | z6 | z6 | z6 | %23
 z6 | z6 | z6 | z6 | z6 | z6 | z6 | z6 | z6 |] %32
V:3
 .D,,2 .[D,F,]2 .[F,A,]2 | .F,,2 [F,A,]2 [A,C]2 | .B,,,2 .[B,,D,]2 .[D,F,]2 | %3
 .F,,,2 .[A,,,A,,]2 .^C,2 | .D,,2 .[D,F,]2 .[F,A,]2 | .A,,,2 .[A,,E,]2 .[C,E,]2 | %6
 .D,,2 .E,,2 .E,2 | .A,,,2 (F,2 E,2) | z2 F,G, A,2 | .F,,2 [F,A,]B, [A,C]2 | %10
 .B,,,2 [B,,D,]E, [D,F,]2 | z2 F,G, CG, | .D,,2 [D,F,]G, [F,A,]2 | F,,2 [A,,A,]B, [A,C]2 | %14
 D,,2 [E,,E,]^F, [E,^G,]2 |1!<(! [F,D]6!<)! :|2 z6 || z6 | z6 | z6 | z6 | z6 | z6 | z6 | z6 | z6 | %26
 z6 | z6 | z6 | z6 | z6 | z6 |] %32
V:4
 x6 | x6 | x6 | x6 | x6 | x6 | x6 | x2 A,,4 | .D,,2 D,2 F,2 | x6 | x6 | .F,,2 A,,4 | x6 | x6 | %14
 x6 |1 x6 :|2 x6 || x6 | x6 | x6 | x6 | x6 | x6 | x6 | x6 | x6 | x6 | x6 | x6 | x6 | x6 | x6 |] %32

